img/link-icon-rocky-road.svg

<svg fill="none" height="650" viewBox="0 0 650 650" width="650" xmlns="http://www.w3.org/2000/svg"><path d="m0 0h650v650h-650z" fill="#000"/><g fill="#fff"><path d="m406.003 227.44-26.762 40.144 50.378 75.569h-119.931l82.825 127.891h175.893z"/><path d="m276.082 178.721-194.8808 292.322h267.7808l-106.5-164.431h118.86z"/></g></svg>

<svg width="650" height="650" viewBox="0 0 650 650" fill="none" xmlns="http://www.w3.org/2000/svg">
<rect width="650" height="650" fill="black"/>
<path d="M406.003 227.44L379.241 267.584L429.619 343.153H309.688L392.513 471.044H568.406L406.003 227.44Z" fill="white"/>
<path d="M276.082 178.721L81.2012 471.043H348.982L242.482 306.612H361.342L276.082 178.721Z" fill="white"/>
</svg>
